packages/cashier/src/assets/svgs/trading-platform/ic-appstore-standard.svg

<svg xmlns="http://www.w3.org/2000/svg" viewBox="0 0 24 24" fill="none">
  <g clip-path="url(#clip0_12335_38710)">
    <path d="M19.5 0H4.5C2.01472 0 0 2.01472 0 4.5V17.625H24V4.5C24 2.01472 21.9853 0 19.5 0Z" fill="#0364B9"/>
    <path d="M4.5 0C2.01472 0 0 2.01472 0 4.5V4.63071L22.4358 1.08948C21.6478 0.4105 20.6218 0 19.5 0H4.5Z" fill="#0A559E"/>
    <path d="M24 4.5C24 3.37182 23.5849 2.34034 22.899 1.55054L19.9521 17.6247L24 17.625V4.5Z" fill="#0A559E"/>
    <path d="M0 17.25H24V19.5C24 21.9853 21.9853 24 19.5 24H4.5C2.01472 24 0 21.9853 0 19.5V17.25Z" fill="#2A3052"/>
    <path d="M5.50959 7.263C5.61759 7.461 5.74059 7.707 5.87859 8.001C6.02259 8.289 6.16959 8.604 6.31959 8.946C6.47559 9.282 6.62859 9.627 6.77859 9.981C6.92859 10.335 7.06959 10.668 7.20159 10.98C7.33359 10.668 7.4746 10.335 7.62459 9.981C7.77459 9.627 7.92459 9.282 8.07459 8.946C8.23059 8.604 8.37759 8.289 8.51559 8.001C8.65959 7.707 8.78559 7.461 8.89359 7.263H10.1716C10.2316 7.677 10.2856 8.142 10.3336 8.658C10.3876 9.168 10.4326 9.702 10.4686 10.26C10.5106 10.812 10.5466 11.367 10.5766 11.925C10.6126 12.483 10.6426 13.008 10.6666 13.5H9.2986C9.28059 12.894 9.25659 12.234 9.22659 11.52C9.19659 10.806 9.1516 10.086 9.09159 9.36C8.98359 9.612 8.8636 9.891 8.73159 10.197C8.59959 10.503 8.4676 10.809 8.33559 11.115C8.20959 11.421 8.08659 11.715 7.96659 11.997C7.84659 12.273 7.74459 12.51 7.66059 12.708H6.67959C6.59559 12.51 6.49359 12.273 6.37359 11.997C6.25359 11.715 6.12759 11.421 5.99559 11.115C5.86959 10.809 5.74059 10.503 5.60859 10.197C5.47659 9.891 5.35659 9.612 5.24859 9.36C5.18859 10.086 5.14359 10.806 5.11359 11.52C5.08359 12.234 5.05959 12.894 5.04159 13.5H3.67359C3.69759 13.008 3.72459 12.483 3.75459 11.925C3.79059 11.367 3.82659 10.812 3.86259 10.26C3.90459 9.702 3.94959 9.168 3.99759 8.658C4.05159 8.142 4.10859 7.677 4.16859 7.263H5.50959Z" fill="white"/>
    <path d="M16.0189 7.263V8.46H14.1379V13.5H12.7339V8.46H10.8529V7.263H16.0189Z" fill="white"/>
    <path d="M18.9912 11.664C18.9912 11.49 18.9522 11.337 18.8742 11.205C18.7962 11.067 18.6612 10.953 18.4692 10.863C18.2772 10.773 18.0192 10.704 17.6952 10.656C17.3712 10.608 16.9632 10.584 16.4712 10.584C16.5372 10.026 16.5912 9.459 16.6332 8.883C16.6752 8.307 16.7082 7.767 16.7322 7.263H20.1072V8.388H17.8572C17.8452 8.604 17.8302 8.814 17.8122 9.018C17.8002 9.216 17.7852 9.39 17.7672 9.54C18.6432 9.6 19.2882 9.807 19.7022 10.161C20.1222 10.509 20.3322 10.995 20.3322 11.619C20.3322 11.907 20.2812 12.174 20.1792 12.42C20.0772 12.666 19.9242 12.879 19.7202 13.059C19.5162 13.239 19.2582 13.38 18.9462 13.482C18.6402 13.584 18.2802 13.635 17.8662 13.635C17.7042 13.635 17.5332 13.623 17.3532 13.599C17.1792 13.581 17.0082 13.554 16.8402 13.518C16.6782 13.488 16.5312 13.455 16.3992 13.419C16.2672 13.383 16.1652 13.347 16.0932 13.311L16.3362 12.204C16.4862 12.27 16.6842 12.336 16.9302 12.402C17.1762 12.462 17.4702 12.492 17.8122 12.492C18.2262 12.492 18.5262 12.411 18.7122 12.249C18.8982 12.081 18.9912 11.886 18.9912 11.664Z" fill="white"/>
    <path d="M8.90386 21.654C9.00286 21.654 9.08386 21.6465 9.14686 21.6315C9.21286 21.6135 9.26536 21.591 9.30436 21.564C9.34336 21.534 9.37036 21.4995 9.38536 21.4605C9.40036 21.4215 9.40786 21.378 9.40786 21.33C9.40786 21.228 9.35986 21.144 9.26386 21.078C9.16786 21.009 9.00286 20.9355 8.76886 20.8575C8.66686 20.8215 8.56486 20.781 8.46286 20.736C8.36086 20.688 8.26936 20.6295 8.18836 20.5605C8.10736 20.4885 8.04136 20.403 7.99036 20.304C7.93936 20.202 7.91386 20.079 7.91386 19.935C7.91386 19.791 7.94086 19.662 7.99486 19.548C8.04886 19.431 8.12536 19.332 8.22436 19.251C8.32336 19.17 8.44336 19.1085 8.58436 19.0665C8.72536 19.0215 8.88436 18.999 9.06136 18.999C9.27136 18.999 9.45286 19.0215 9.60586 19.0665C9.75886 19.1115 9.88486 19.161 9.98386 19.215L9.78136 19.7685C9.69436 19.7235 9.59686 19.6845 9.48886 19.6515C9.38386 19.6155 9.25636 19.5975 9.10636 19.5975C8.93836 19.5975 8.81686 19.6215 8.74186 19.6695C8.66986 19.7145 8.63386 19.785 8.63386 19.881C8.63386 19.938 8.64736 19.986 8.67436 20.025C8.70136 20.064 8.73886 20.1 8.78686 20.133C8.83786 20.163 8.89486 20.1915 8.95786 20.2185C9.02386 20.2425 9.09586 20.268 9.17386 20.295C9.33586 20.355 9.47686 20.415 9.59686 20.475C9.71686 20.532 9.81586 20.5995 9.89386 20.6775C9.97486 20.7555 10.0349 20.847 10.0739 20.952C10.1129 21.057 10.1324 21.1845 10.1324 21.3345C10.1324 21.6255 10.0304 21.852 9.82636 22.014C9.62236 22.173 9.31486 22.2525 8.90386 22.2525C8.76586 22.2525 8.64136 22.2435 8.53036 22.2255C8.41936 22.2105 8.32036 22.191 8.23336 22.167C8.14936 22.143 8.07586 22.1175 8.01286 22.0905C7.95286 22.0635 7.90186 22.038 7.85986 22.014L8.05786 21.456C8.15086 21.507 8.26486 21.5535 8.39986 21.5955C8.53786 21.6345 8.70586 21.654 8.90386 21.654Z" fill="white"/>
    <path d="M12.8976 19.071V19.6695H11.9571V22.1895H11.2551V19.6695H10.3146V19.071H12.8976Z" fill="white"/>
    <path d="M14.0508 21.618C14.0838 21.621 14.1213 21.624 14.1633 21.627C14.2083 21.627 14.2608 21.627 14.3208 21.627C14.6718 21.627 14.9313 21.5385 15.0993 21.3615C15.2703 21.1845 15.3558 20.94 15.3558 20.628C15.3558 20.301 15.2748 20.0535 15.1128 19.8855C14.9508 19.7175 14.6943 19.6335 14.3433 19.6335C14.2953 19.6335 14.2458 19.635 14.1948 19.638C14.1438 19.638 14.0958 19.641 14.0508 19.647V21.618ZM16.0803 20.628C16.0803 20.898 16.0383 21.1335 15.9543 21.3345C15.8703 21.5355 15.7503 21.702 15.5943 21.834C15.4413 21.966 15.2538 22.065 15.0318 22.131C14.8098 22.197 14.5608 22.23 14.2848 22.23C14.1588 22.23 14.0118 22.224 13.8438 22.212C13.6758 22.203 13.5108 22.182 13.3488 22.149V19.1115C13.5108 19.0815 13.6788 19.062 13.8528 19.053C14.0298 19.041 14.1813 19.035 14.3073 19.035C14.5743 19.035 14.8158 19.065 15.0318 19.125C15.2508 19.185 15.4383 19.2795 15.5943 19.4085C15.7503 19.5375 15.8703 19.7025 15.9543 19.9035C16.0383 20.1045 16.0803 20.346 16.0803 20.628Z" fill="white"/>
  </g>
  <defs>
    <clipPath id="clip0_12335_38710">
      <rect width="24" height="24" fill="white"/>
    </clipPath>
  </defs>
</svg>

<svg xmlns="http://www.w3.org/2000/svg" fill="none" viewBox="0 0 24 24"><g clip-path="url(#a)"><path fill="#0364B9" d="M19.5 0h-15A4.5 4.5 0 0 0 0 4.5v13.125h24V4.5A4.5 4.5 0 0 0 19.5 0Z"/><path fill="#0A559E" d="M4.5 0A4.5 4.5 0 0 0 0 4.5v.13l22.436-3.54A4.482 4.482 0 0 0 19.5 0h-15ZM24 4.5c0-1.128-.415-2.16-1.101-2.95l-2.947 16.075H24V4.5Z"/><path fill="#2A3052" d="M0 17.25h24v2.25a4.5 4.5 0 0 1-4.5 4.5h-15A4.5 4.5 0 0 1 0 19.5v-2.25Z"/><path fill="#fff" d="M5.51 7.263c.108.198.23.444.369.738.144.288.29.603.44.945.157.336.31.681.46 1.035l.423.999.423-.999c.15-.354.3-.699.45-1.035.156-.342.303-.657.44-.945.145-.294.27-.54.379-.738h1.278c.06.414.114.879.162 1.395.054.51.099 1.044.135 1.602.042.552.078 1.107.108 1.665.036.558.066 1.083.09 1.575H9.299a162.14 162.14 0 0 0-.072-1.98 53.467 53.467 0 0 0-.135-2.16l-.36.837-.396.918a81.708 81.708 0 0 1-.675 1.593H6.68a88.845 88.845 0 0 0-.306-.711l-.378-.882a59.839 59.839 0 0 0-.387-.918l-.36-.837c-.06.726-.105 1.446-.135 2.16-.03.714-.054 1.374-.072 1.98H3.674c.024-.492.05-1.017.08-1.575l.109-1.665c.042-.558.087-1.092.135-1.602.054-.516.11-.981.17-1.395H5.51ZM16.019 7.263V8.46h-1.881v5.04h-1.404V8.46h-1.881V7.263h5.166ZM18.991 11.664a.885.885 0 0 0-.117-.459c-.078-.138-.213-.252-.405-.342a2.845 2.845 0 0 0-.774-.207 8.595 8.595 0 0 0-1.224-.072c.066-.558.12-1.125.162-1.701.042-.576.075-1.116.1-1.62h3.374v1.125h-2.25a19.44 19.44 0 0 1-.045.63 9.02 9.02 0 0 1-.045.522c.876.06 1.521.267 1.935.621.42.348.63.834.63 1.458 0 .288-.05.555-.153.801a1.723 1.723 0 0 1-.459.639c-.204.18-.462.321-.774.423a3.423 3.423 0 0 1-1.08.153c-.162 0-.333-.012-.513-.036a4.807 4.807 0 0 1-.513-.081 5.47 5.47 0 0 1-.44-.099 1.732 1.732 0 0 1-.307-.108l.243-1.107c.15.066.348.132.594.198.246.06.54.09.882.09.414 0 .714-.081.9-.243.186-.168.28-.363.28-.585ZM8.904 21.654c.099 0 .18-.008.243-.023a.517.517 0 0 0 .157-.067.24.24 0 0 0 .081-.104.361.361 0 0 0 .023-.13c0-.102-.048-.186-.144-.252-.096-.069-.261-.142-.495-.22a4.321 4.321 0 0 1-.306-.122 1.225 1.225 0 0 1-.275-.175.877.877 0 0 1-.198-.257.818.818 0 0 1-.076-.369c0-.144.027-.273.08-.387a.826.826 0 0 1 .23-.297c.1-.081.22-.143.36-.184.141-.046.3-.068.477-.068a1.942 1.942 0 0 1 .923.216l-.203.553a1.748 1.748 0 0 0-.292-.117 1.187 1.187 0 0 0-.383-.053c-.168 0-.29.024-.364.072-.072.044-.108.115-.108.211 0 .057.013.105.04.144a.432.432 0 0 0 .113.108c.05.03.108.059.17.085l.217.077c.162.06.303.12.423.18.12.057.219.124.297.202.08.079.14.17.18.275.039.105.058.232.058.382 0 .291-.102.518-.306.68-.204.159-.511.239-.922.239-.138 0-.263-.01-.374-.027a1.864 1.864 0 0 1-.518-.135 1.808 1.808 0 0 1-.152-.077l.198-.558c.093.051.207.098.342.14.138.038.306.058.504.058ZM12.898 19.071v.598h-.94v2.52h-.703v-2.52h-.94v-.598h2.583ZM14.05 21.618l.113.009h.158c.35 0 .61-.088.778-.265.171-.177.257-.422.257-.734 0-.327-.081-.575-.243-.742-.162-.168-.419-.252-.77-.252a2.53 2.53 0 0 0-.148.004 1.09 1.09 0 0 0-.144.009v1.971Zm2.03-.99c0 .27-.042.506-.126.706a1.298 1.298 0 0 1-.36.5c-.153.132-.34.231-.562.297a2.618 2.618 0 0 1-.747.099c-.126 0-.273-.006-.441-.018a3.383 3.383 0 0 1-.495-.063v-3.038a6.868 6.868 0 0 1 .958-.076c.267 0 .509.03.725.09.219.06.406.154.562.284.156.129.276.294.36.495.084.2.126.442.126.724Z"/></g><defs><clipPath id="a"><path fill="#fff" d="M0 0h24v24H0z"/></clipPath></defs></svg>
